Production/EA4S_WordDrawings/SVG/singles_SVG/moon.svg

<?xml version="1.0" encoding="UTF-8" standalone="no"?><!DOCTYPE svg PUBLIC "-//W3C//DTD SVG 1.1//EN" "http://www.w3.org/Graphics/SVG/1.1/DTD/svg11.dtd"><svg width="100%" height="100%" viewBox="0 0 477 503" version="1.1" xmlns="http://www.w3.org/2000/svg" xmlns:xlink="http://www.w3.org/1999/xlink" xml:space="preserve" style="fill-rule:evenodd;clip-rule:evenodd;stroke-linejoin:round;stroke-miterlimit:1.41421;"><g id="moon"><path d="M355.061,0.877c-45.947,-4.005 -93.026,8.555 -135.534,25.078c-45.44,17.664 -88.738,42.703 -125.689,74.591c-16.624,14.346 -31.961,30.458 -44.666,48.396c-15.502,21.886 -27.391,47.004 -36.132,72.292c-9.274,26.828 -14.42,55.179 -12.559,83.616c1.572,24.016 9.048,48.123 18.514,70.144c17.985,41.839 48.747,76.323 89.022,97.775c41.582,22.147 90.964,31.11 137.767,29.361c44.803,-1.674 89.307,-14.646 127.592,-38.047c38.325,-23.425 71.855,-58.218 89.038,-100.069c0.532,-1.296 1.041,-2.602 1.548,-3.906c2.339,-6.004 -5.417,-5.592 -7.684,-1.434c-21.676,39.774 -50.92,74.224 -90.086,97.56c-38.395,22.876 -82.914,33.813 -127.433,34.14c-46.902,0.345 -96.156,-11.301 -136.045,-36.404c-38.365,-24.145 -64.632,-62.106 -79.284,-104.506c-8.68,-25.115 -13.065,-50.909 -10.561,-77.501c2.707,-28.74 12.061,-56.503 24.415,-82.448c10.219,-21.46 22.641,-41.156 38.491,-58.885c15.303,-17.117 33.089,-32.058 51.648,-45.506c65.455,-47.429 145.819,-76.906 226.596,-81.201c1.353,-0.072 2.98,-2.877 1.042,-3.046Z" style="fill-rule:nonzero;"/><path d="M340.265,17.455c-21.829,5.632 -41.744,16.799 -60.069,29.715c-19.074,13.441 -36.287,29.478 -51.337,47.294c-29.111,34.461 -50.809,77.262 -55.666,122.484c-2.311,21.513 -0.336,43.214 6.253,63.844c7.605,23.812 22.453,43.267 41.966,58.663c20.58,16.238 45.022,25.933 70.769,29.981c25.833,4.063 52.327,5.076 78.263,1.385c36.535,-5.198 74.758,-20.791 100.449,-47.993c3.728,-3.947 0.123,-8.087 -4.278,-4.873c-21.489,15.697 -43.009,29.457 -68.738,37.122c-24.765,7.377 -51.047,8.929 -76.715,7.036c-26.817,-1.978 -52.358,-7.204 -75.869,-20.702c-21.955,-12.605 -41.403,-31.417 -51.662,-54.814c-17.99,-41.032 -12.817,-87.986 4.275,-128.335c18.251,-43.084 49.889,-80.331 87.474,-107.854c17.082,-12.509 36.038,-22.402 55.249,-31.195c0.995,-0.457 0.919,-2.089 -0.364,-1.758Z" style="fill-rule:nonzero;"/><path d="M468.882,322.624c-0.507,4.068 -1.538,7.641 -3.444,11.289c-1.503,2.875 -4.604,6.398 -1.153,9.081c1.279,0.995 3.491,0.268 4.709,-0.382c7.967,-4.245 9.254,-14.27 5.557,-21.814c-1.306,-2.662 -5.375,-0.534 -5.669,1.826Z" style="fill-rule:nonzero;"/><path d="M245.92,30.617c-11.964,2.272 -23.083,7.786 -34.14,12.75c-11.847,5.318 -23.551,10.953 -34.991,17.1c-22.598,12.141 -43.968,26.534 -63.607,43.045c-39.145,32.909 -72.203,75.775 -84.38,126.13c-10.3,42.594 -5.262,88.295 12.371,128.244c9.092,20.599 21.829,39.014 36.745,55.793c14.525,16.338 32.246,33.313 54.433,37.69c2.599,0.513 6.786,-4.417 3.481,-5.721c-12.312,-4.856 -23.569,-11.087 -33.657,-19.7c-9.997,-8.535 -18.909,-18.566 -27.176,-28.756c-16.148,-19.904 -28.006,-43.03 -35.496,-67.5c-15.011,-49.041 -9.787,-103.106 15.106,-147.984c19.863,-35.811 50.332,-66.019 83.133,-90.051c16.412,-12.025 33.959,-22.616 51.879,-32.222c9.195,-4.928 18.519,-9.556 28.005,-13.895c9.567,-4.375 19.372,-8.019 28.372,-13.507c0.491,-0.299 0.902,-1.602 -0.078,-1.416Z" style="fill-rule:nonzero;"/><path d="M158.674,458.817c8.531,4.797 19.043,8.165 28.542,10.373c11.107,2.582 22.536,3.368 33.901,3.737c22.527,0.731 45.073,0.059 67.372,-3.374c20.915,-3.219 41.466,-8.826 60.952,-17.095c9.67,-4.104 19.007,-8.922 27.972,-14.394c9.36,-5.713 19.159,-12.095 25.957,-20.801c1.773,-2.271 -0.918,-3.592 -2.795,-2.216c-16.893,12.393 -35.252,23.543 -54.63,31.562c-18.916,7.828 -38.93,12.834 -59.156,15.797c-20.61,3.02 -41.424,3.5 -62.22,3.154c-11.438,-0.189 -22.858,-1.061 -34.088,-3.299c-5.177,-1.031 -10.264,-2.434 -15.278,-4.072c-4.979,-1.625 -9.84,-3.212 -15.114,-2.364c-1.112,0.179 -3.012,2.093 -1.415,2.992Z" style="fill-rule:nonzero;"/></g></svg>

<?xml version="1.0" encoding="UTF-8"?>
<svg width="477px" height="503px" viewBox="0 0 477 503" version="1.1" xmlns="http://www.w3.org/2000/svg" xmlns:xlink="http://www.w3.org/1999/xlink">
    <!-- Generator: Sketch 41 (35326) - http://www.bohemiancoding.com/sketch -->
    <title>moon</title>
    <desc>Created with Sketch.</desc>
    <defs></defs>
    <g id="Page-1" stroke="none" stroke-width="1" fill="none" fill-rule="evenodd">
        <g id="Layer_1" transform="translate(-2176.000000, -806.000000)" fill="#000000">
            <g id="Layer_1_3_">
                <g id="moon" transform="translate(2176.000000, 806.000000)">
                    <path d="M355.061,0.877 C309.114,-3.128 262.035,9.432 219.527,25.955 C174.087,43.619 130.789,68.658 93.838,100.546 C77.214,114.892 61.877,131.004 49.172,148.942 C33.67,170.828 21.781,195.946 13.04,221.234 C3.766,248.062 -1.38,276.413 0.481,304.85 C2.053,328.866 9.529,352.973 18.995,374.994 C36.98,416.833 67.742,451.317 108.017,472.769 C149.599,494.916 198.981,503.879 245.784,502.13 C290.587,500.456 335.091,487.484 373.376,464.083 C411.701,440.658 445.231,405.865 462.414,364.014 C462.946,362.718 463.455,361.412 463.962,360.108 C466.301,354.104 458.545,354.516 456.278,358.674 C434.602,398.448 405.358,432.898 366.192,456.234 C327.797,479.11 283.278,490.047 238.759,490.374 C191.857,490.719 142.603,479.073 102.714,453.97 C64.349,429.825 38.082,391.864 23.43,349.464 C14.75,324.349 10.365,298.555 12.869,271.963 C15.576,243.223 24.93,215.46 37.284,189.515 C47.503,168.055 59.925,148.359 75.775,130.63 C91.078,113.513 108.864,98.572 127.423,85.124 C192.878,37.695 273.242,8.218 354.019,3.923 C355.372,3.851 356.999,1.046 355.061,0.877 L355.061,0.877 Z" id="Shape"></path>
                    <path d="M340.265,17.455 C318.436,23.087 298.521,34.254 280.196,47.17 C261.122,60.611 243.909,76.648 228.859,94.464 C199.748,128.925 178.05,171.726 173.193,216.948 C170.882,238.461 172.857,260.162 179.446,280.792 C187.051,304.604 201.899,324.059 221.412,339.455 C241.992,355.693 266.434,365.388 292.181,369.436 C318.014,373.499 344.508,374.512 370.444,370.821 C406.979,365.623 445.202,350.03 470.893,322.828 C474.621,318.881 471.016,314.741 466.615,317.955 C445.126,333.652 423.606,347.412 397.877,355.077 C373.112,362.454 346.83,364.006 321.162,362.113 C294.345,360.135 268.804,354.909 245.293,341.411 C223.338,328.806 203.89,309.994 193.631,286.597 C175.641,245.565 180.814,198.611 197.906,158.262 C216.157,115.178 247.795,77.931 285.38,50.408 C302.462,37.899 321.418,28.006 340.629,19.213 C341.624,18.756 341.548,17.124 340.265,17.455 L340.265,17.455 Z" id="Shape"></path>
                    <path d="M468.882,322.624 C468.375,326.692 467.344,330.265 465.438,333.913 C463.935,336.788 460.834,340.311 464.285,342.994 C465.564,343.989 467.776,343.262 468.994,342.612 C476.961,338.367 478.248,328.342 474.551,320.798 C473.245,318.136 469.176,320.264 468.882,322.624 L468.882,322.624 Z" id="Shape"></path>
                    <path d="M245.92,30.617 C233.956,32.889 222.837,38.403 211.78,43.367 C199.933,48.685 188.229,54.32 176.789,60.467 C154.191,72.608 132.821,87.001 113.182,103.512 C74.037,136.421 40.979,179.287 28.802,229.642 C18.502,272.236 23.54,317.937 41.173,357.886 C50.265,378.485 63.002,396.9 77.918,413.679 C92.443,430.017 110.164,446.992 132.351,451.369 C134.95,451.882 139.137,446.952 135.832,445.648 C123.52,440.792 112.263,434.561 102.175,425.948 C92.178,417.413 83.266,407.382 74.999,397.192 C58.851,377.288 46.993,354.162 39.503,329.692 C24.492,280.651 29.716,226.586 54.609,181.708 C74.472,145.897 104.941,115.689 137.742,91.657 C154.154,79.632 171.701,69.041 189.621,59.435 C198.816,54.507 208.14,49.879 217.626,45.54 C227.193,41.165 236.998,37.521 245.998,32.033 C246.489,31.734 246.9,30.431 245.92,30.617 L245.92,30.617 Z" id="Shape"></path>
                    <path d="M158.674,458.817 C167.205,463.614 177.717,466.982 187.216,469.19 C198.323,471.772 209.752,472.558 221.117,472.927 C243.644,473.658 266.19,472.986 288.489,469.553 C309.404,466.334 329.955,460.727 349.441,452.458 C359.111,448.354 368.448,443.536 377.413,438.064 C386.773,432.351 396.572,425.969 403.37,417.263 C405.143,414.992 402.452,413.671 400.575,415.047 C383.682,427.44 365.323,438.59 345.945,446.609 C327.029,454.437 307.015,459.443 286.789,462.406 C266.179,465.426 245.365,465.906 224.569,465.56 C213.131,465.371 201.711,464.499 190.481,462.261 C185.304,461.23 180.217,459.827 175.203,458.189 C170.224,456.564 165.363,454.977 160.089,455.825 C158.977,456.004 157.077,457.918 158.674,458.817 L158.674,458.817 Z" id="Shape"></path>
                </g>
            </g>
        </g>
    </g>
</svg>
